X:18
T:Liti Kjersti
R:
C:Trad
H:
N:
O:Norge - Norway - Norvge
A:
Z:<anamnese@laposte.net> -- http://anamnese.fr.st
M:2/4
L:1/8
Q:1/4=70
K:G
D D | E2 B c | BA B A | G2 F G | B3 G | F E F G |
F3 E | E2 B c | B2 B A | G2 FG | B2 A G |F E F G |F3 F |
E2 B c | BA B2 | AF A G | GF G G | F3 E | E2 |]
W:Liti Kjersti ho var seg saa lite eit viv,
W:Brunfolen loeyper lett,
W:ho kune kje raade sitt unge liv.
W:Med det regner og det blaes.
W:For langt nord i fjello,
W:djupt under hello
W:der leikar det.
